X:1
C: W. Turner
M: none
L:1/2
%%staves [(S A) (T B)]
K:C
V:S clef=treble
C'2 | A G | ^F2 || G2 | G C' | C' B | C'2 |]
V:A clef=treble
E2 | C ^C | D2 || D2 | C/2 D/2 E/2 F/2 | G>F | E2 |]
V:T clef=bass octave=-1
G2 | F G A2 || B2 | c c | d G | G2 |]
V:B clef=bass octave=-1
C2 | F E | D2 || G2 | E A | G G | C2 |]
